X:1
T:"RailWayTrax" - Triphop1.sty demo
L:1/8
K:D
Q:1/4=135
R:TRIPHOP1-ROCK COM SEMIC.
M:4/4
| "Em" z8 | z8 | "Bm" z8 | z8 |
| "Em" z2 B,2 D3 B, | D/2E3/2 DD- D2  z2 | "Bm" z2 CD C2 A,B,- | B,2  z2  z4 |
| "Em7" z2 B,2 D3 B, | D/2E3/2 DD- D2 B,2 | "Bm7"C/2D3/2 CC A,3 B,- | B,4  z4 |
| "Em7" z2 A/2B3/2 B3 A | A/2B3/2 AF- F3 D | "Bm"E2 FE- E D2 B,- | B,4  z2 "D" z2 |
| "Em7" z2  z B B3 A | A/2B3/2 AF- F3 D | "Bm"E2 FE- E3/2D/2- D2 | "Bm"B,2 "A"C2 "D"D2 "D#dim"_G2 |
| "Em7"F/2GG/2- GF G3 F | F/2GG/2- GF G2 A2 | "Bm"F3/2F/2- FE F2 D2 | B,4 "A" z4 |
| "Em7"G3/2G/2- GF G3 E | "Em9"G3/2G/2- GF G2 A2 | "Bm"F3/2F/2- FF "A"E2 D2 | "Bm"B,2  z2  z4 |
| "Bm" z8 | z8 |

